assets/icons/24px/stroke/arrow-circle-bckwards-thirty-24px.svg

<svg width="24" height="24" viewBox="0 0 24 24" fill="none" xmlns="http://www.w3.org/2000/svg">
<path fill-rule="evenodd" clip-rule="evenodd" d="M7.8865 2.30587C7.50314 1.90831 6.87008 1.89679 6.47252 2.28015L3.80587 4.85152C3.61042 5.03999 3.5 5.29984 3.5 5.57136C3.5 5.84288 3.6104 6.10273 3.80585 6.2912L6.4725 8.86271C6.87005 9.24608 7.50311 9.23458 7.88648 8.83703C8.26985 8.43948 8.25835 7.80642 7.8608 7.42305L6.9776 6.57137L11.5 6.57136C15.4354 6.57136 18.5 9.24909 18.5 13.2857C18.5 17.3223 15.4354 20 11.5 20C7.7054 20 5.12222 17.0681 5.12222 13.2857C5.12222 12.7334 4.6745 12.2857 4.12222 12.2857C3.56993 12.2857 3.12222 12.7334 3.12222 13.2857C3.12222 18.0243 6.45805 22 11.5 22C16.4011 22 20.5 18.5607 20.5 13.2857C20.5 8.01062 16.4011 4.57136 11.5 4.57136L6.97771 4.57137L7.86078 3.71985C8.25834 3.33649 8.26985 2.70343 7.8865 2.30587Z" fill="white"/>
<path fill-rule="evenodd" clip-rule="evenodd" d="M13.8146 11.3718C13.6283 11.7154 13.5 12.3557 13.5 13.5C13.5 14.6443 13.6283 15.2846 13.8146 15.6282C13.8999 15.7857 13.9906 15.8675 14.0804 15.9157C14.1748 15.9665 14.306 16 14.5 16C14.6816 16 14.8082 15.9637 14.9029 15.9081C14.9963 15.8531 15.0926 15.7594 15.1823 15.5886C15.3732 15.2248 15.5 14.5777 15.5 13.5C15.5 12.4223 15.3732 11.7752 15.1823 11.4114C15.0926 11.2406 14.9963 11.1469 14.9029 11.0919C14.8083 11.0363 14.6816 11 14.5 11C14.306 11 14.1748 11.0335 14.0804 11.0843C13.9906 11.1325 13.8999 11.2143 13.8146 11.3718ZM13.6071 10.2033C13.8876 10.0526 14.194 10 14.5 10C14.8184 10 15.1292 10.065 15.4096 10.2298C15.6912 10.3953 15.9074 10.6411 16.0677 10.9466C16.3768 11.5355 16.5 12.3884 16.5 13.5C16.5 14.6116 16.3768 15.4645 16.0677 16.0533C15.9074 16.3589 15.6912 16.6047 15.4096 16.7702C15.1292 16.935 14.8184 17 14.5 17C14.194 17 13.8876 16.9474 13.6071 16.7967C13.3218 16.6434 13.1001 16.4085 12.9354 16.1048C12.6217 15.526 12.5 14.6664 12.5 13.5C12.5 12.3336 12.6217 11.4739 12.9354 10.8952C13.1 10.5915 13.3218 10.3566 13.6071 10.2033ZM9.88227 11.3094C9.4672 11.2633 9.07885 11.4603 8.9472 11.7236C8.82371 11.9706 8.52337 12.0707 8.27638 11.9472C8.02939 11.8237 7.92928 11.5234 8.05277 11.2764C8.42113 10.5397 9.28277 10.2367 9.9927 10.3156C10.3633 10.3567 10.7424 10.5041 11.0332 10.7949C11.3314 11.093 11.5 11.5058 11.5 12C11.5 12.6419 11.2329 13.1297 10.8488 13.4602C11.2543 13.7929 11.5 14.3042 11.5 15C11.5 15.931 11.0202 16.6358 10.3005 16.9057C9.59403 17.1706 8.76689 16.974 8.14643 16.3536C7.95117 16.1583 7.95117 15.8417 8.14643 15.6464C8.3417 15.4512 8.65828 15.4512 8.85354 15.6464C9.23308 16.026 9.65594 16.0794 9.94943 15.9693C10.2298 15.8642 10.5 15.569 10.5 15C10.5 14.547 10.3486 14.3362 10.1969 14.2193C10.0271 14.0885 9.78246 14.0198 9.51001 14.0014C9.3712 14.0145 9.25237 14.0183 9.16479 14.0186C9.11651 14.0189 9.0773 14.018 9.049 14.017C9.03484 14.0166 9.02337 14.0161 9.01483 14.0156L9.00421 14.015L9.00059 14.0148L8.99921 14.0147C8.99915 14.0147 8.99812 14.0147 9.03149 13.5158C8.95545 13.0216 8.95552 13.0216 8.95559 13.0216L8.95669 13.0214L8.95823 13.0212L8.96217 13.0206L8.97345 13.019C8.98245 13.0178 8.99441 13.0163 9.00908 13.0146C9.0384 13.0112 9.07876 13.0072 9.12834 13.0038C9.21818 12.9976 9.34 12.9933 9.48237 12.9987C9.73382 12.9667 9.99332 12.8709 10.1829 12.7137C10.3659 12.562 10.5 12.3427 10.5 12C10.5 11.7442 10.4186 11.5945 10.3261 11.502C10.2263 11.4022 10.0741 11.3308 9.88227 11.3094ZM9.03149 13.5158L8.95559 13.0216C8.7036 13.0603 8.52101 13.2825 8.53195 13.5372C8.5429 13.7919 8.74374 13.9976 8.99812 14.0147L9.03149 13.5158ZM9.06325 13.0168C9.0632 13.0168 9.06321 13.0168 9.06325 13.0168Z" fill="white"/>
</svg>

<svg width="24" height="24" fill="none" xmlns="http://www.w3.org/2000/svg"><path fill-rule="evenodd" clip-rule="evenodd" d="M7.886 2.306a1 1 0 0 0-1.413-.026L3.806 4.852a1 1 0 0 0 0 1.44l2.667 2.57A1 1 0 1 0 7.86 7.424l-.883-.852H11.5c3.935 0 7 2.678 7 6.715 0 4.036-3.065 6.714-7 6.714-3.795 0-6.378-2.932-6.378-6.714a1 1 0 1 0-2 0C3.122 18.024 6.458 22 11.5 22c4.901 0 9-3.44 9-8.714 0-5.275-4.099-8.715-9-8.715H6.978l.883-.851a1 1 0 0 0 .026-1.414z" fill="#fff"/><path fill-rule="evenodd" clip-rule="evenodd" d="M13.815 11.372c-.187.343-.315.984-.315 2.128 0 1.144.128 1.785.315 2.128a.66.66 0 0 0 .265.288c.095.05.226.084.42.084a.775.775 0 0 0 .403-.092.758.758 0 0 0 .28-.32c.19-.363.317-1.01.317-2.088s-.127-1.725-.318-2.089a.758.758 0 0 0-.28-.32A.775.775 0 0 0 14.5 11a.872.872 0 0 0-.42.084.66.66 0 0 0-.265.288zm-.208-1.169c.28-.15.587-.203.893-.203.318 0 .63.065.91.23.281.165.497.411.658.717.309.589.432 1.441.432 2.553 0 1.112-.123 1.964-.432 2.553-.16.306-.377.552-.658.717-.28.165-.592.23-.91.23a1.86 1.86 0 0 1-.893-.203 1.656 1.656 0 0 1-.672-.692c-.313-.579-.435-1.439-.435-2.605s.122-2.026.435-2.605c.165-.303.387-.538.672-.692zM9.882 11.31c-.415-.046-.803.151-.935.415a.5.5 0 1 1-.894-.448c.368-.736 1.23-1.04 1.94-.96.37.04.75.188 1.04.479.298.298.467.71.467 1.205 0 .642-.267 1.13-.651 1.46.405.333.651.844.651 1.54 0 .931-.48 1.636-1.2 1.906-.706.265-1.533.068-2.154-.552a.5.5 0 0 1 .708-.708c.38.38.802.433 1.095.323.28-.105.551-.4.551-.969 0-.453-.151-.664-.303-.78-.17-.132-.415-.2-.687-.219a3.844 3.844 0 0 1-.495.015l-.01-.001h-.006l.032-.5-.075-.493h.002l.004-.001.011-.002a2.132 2.132 0 0 1 .155-.015c.09-.006.212-.01.354-.005.252-.032.511-.128.7-.285.184-.152.318-.371.318-.714 0-.256-.081-.405-.174-.498a.735.735 0 0 0-.444-.193zm-.85 2.207l-.076-.494a.5.5 0 0 0 .042.993l.033-.5zm.031-.5z" fill="#fff"/></svg>
